X:1
T:Le reel des 10 F
M:C
L:1/8
Q:220
C:(c) Greg Anderson, 4 Dec 1999
R:Reel
H:A tune looking for a name, a found coin, voila
K:G
GD EF GE GA|Bd e2 e2 ef|gf ed Be dG|F6 GF|
ED EF GE GA|Bd ed e2 ef|1gb ag fa gd| e6 EF:|
2gf eG AB FG|E6 FE|:DE FB AG FA|BB gB fB eB|
de fa gf eg|!eB gB e2 f^c|dA FA EA DA|
GF GA B2 f2|ed BA GE FG|1E6 FE:|2E6 EF||
